X: 11957
T: Enchanted Lady, The
R: reel
M: 4/4
K: Dmajor
~A3G FAdB|AGFD EA,~A,2|~A3G FAdB|1 ~ABde fddB:|2 ~ABde fdde||
f2df efdf|afdf eB~B2|f2df efdA|(3Bcd AG FDDe|
f2df efdf|afdf eB~B2|A3B dfbf|afeg fddB||

